X:978
T:Reel 978
M:4/4
K:Dmaj
L:1/8
AG|FEDd  (3Bcd AF|GBAF GEEG|FDDE FGAd| (3Bcd AG FDDG|FDDF AdcA|GBAG FDDE|FEDE  (3FGA df|gece d2|A2|defg afdf|geaf gfeg|fdfa bgag|fdec d2 (3ABc |defg abaf|gage a2ag|fgaf egga|fdec d2|
